exported-svg/coffee.svg

<svg height="24" viewBox="0 0 24 24" width="24" xmlns="http://www.w3.org/2000/svg"><path d="m17.5000003 9h.9999997c2.4852814 0 4.5 2.0147186 4.5 4.5s-2.0147186 4.5-4.5 4.5h-.5v.5c0 2.4852814-2.0147186 4.5-4.5 4.5h-8c-2.48528137 0-4.5-2.0147186-4.5-4.5v-9c0-.27614237.22385763-.5.5-.5h16zm.4999997 8h.5c1.9329966 0 3.5-1.5670034 3.5-3.5s-1.5670034-3.5-3.5-3.5h-.5zm-16-7v8.5c0 1.9329966 1.56700338 3.5 3.5 3.5h8c1.9329966 0 3.5-1.5670034 3.5-3.5v-8.5zm3-7.5c0-.27614237.22385763-.5.5-.5s.5.22385763.5.5v3c0 .27614237-.22385763.5-.5.5s-.5-.22385763-.5-.5zm4 0c0-.27614237.22385763-.5.5-.5s.5.22385763.5.5v3c0 .27614237-.22385763.5-.5.5s-.5-.22385763-.5-.5zm4 0c0-.27614237.2238576-.5.5-.5s.5.22385763.5.5v3c0 .27614237-.2238576.5-.5.5s-.5-.22385763-.5-.5z"/></svg>

<?xml version="1.0" encoding="UTF-8"?>
<svg width="24px" height="24px" viewBox="0 0 24 24" version="1.1" xmlns="http://www.w3.org/2000/svg" xmlns:xlink="http://www.w3.org/1999/xlink">
    <!-- Generator: Sketch 55.2 (78181) - https://sketchapp.com -->
    <title>coffee</title>
    <desc>Created with Sketch.</desc>
    <g id="coffee" stroke="none" stroke-width="1" fill="none" fill-rule="evenodd">
        <path d="M17.5000003,9 L18.5,9 C20.9852814,9 23,11.0147186 23,13.5 C23,15.9852814 20.9852814,18 18.5,18 L18,18 L18,18.5 C18,20.9852814 15.9852814,23 13.5,23 L5.5,23 C3.01471863,23 1,20.9852814 1,18.5 L1,9.5 C1,9.22385763 1.22385763,9 1.5,9 L17.5,9 Z M18,17 L18.5,17 C20.4329966,17 22,15.4329966 22,13.5 C22,11.5670034 20.4329966,10 18.5,10 L18,10 L18,17 Z M2,10 L2,18.5 C2,20.4329966 3.56700338,22 5.5,22 L13.5,22 C15.4329966,22 17,20.4329966 17,18.5 L17,10 L2,10 Z M5,2.5 C5,2.22385763 5.22385763,2 5.5,2 C5.77614237,2 6,2.22385763 6,2.5 L6,5.5 C6,5.77614237 5.77614237,6 5.5,6 C5.22385763,6 5,5.77614237 5,5.5 L5,2.5 Z M9,2.5 C9,2.22385763 9.22385763,2 9.5,2 C9.77614237,2 10,2.22385763 10,2.5 L10,5.5 C10,5.77614237 9.77614237,6 9.5,6 C9.22385763,6 9,5.77614237 9,5.5 L9,2.5 Z M13,2.5 C13,2.22385763 13.2238576,2 13.5,2 C13.7761424,2 14,2.22385763 14,2.5 L14,5.5 C14,5.77614237 13.7761424,6 13.5,6 C13.2238576,6 13,5.77614237 13,5.5 L13,2.5 Z" id="Combined-Shape" fill="#000000" fill-rule="nonzero"></path>
    </g>
</svg>
